X:1
T:Young Alan (8)
M:6/8
L:1/8
K:C
 C| DDD DEG| A2 A D3/2 D/2 E| G2 GE-D C| C3- C2 C/2C/2| D2 D DEG| A2 A GAc|\
 A2 cE-D C| D3- D2||
